**kern	**kern	**kern
*staff3	*staff2	*staff1
*tb16	*tb16	*tb16
=1-	=1-	=1-
*clefF4	*clefG2	*clefG2
*k[f#]	*k[f#]	*k[f#]
*M6/8	*M6/8	*M6/8
4GG/ 4G/	8r	4r
.	8d/L 8g/L 8b/L	.
8r	8d/J 8g/J 8b/J	8r
4DD/ 4D/	8r	8b\
.	8d/L 8g/L 8b/L	8cc\
8r	8d/J 8g/J 8b/J	8cc#\
=2	=2	=2
4AA\ 4A\	8r	4ee^\
.	8d/L 8f#/L 8cc/L	.
8r	8d/J 8f#/J 8cc/J	8dd\
4DD/ 4D/	8r	8cc\
.	8d/L 8f#/L 8cc/L	8b/
8r	8d/J 8f#/J 8cc/J	8a/
=3	=3	=3
4GG/ 4G/	8r	4g/
.	8d/L 8g/L 8b/L	.
8r	8d/J 8g/J 8b/J	8r
4GGG/ 4GG/	8r	4a/
.	8B/L 8e/L 8g/L	.
8r	8B/J 8e/J 8g/J	8g/
=4	=4	=4
!!linebreak:original
4AAA/ 4AA/	8r	4b/
.	8A/L 8d/L 8f#/L	.
8r	8A/J 8d/J 8f#/J	8a/
4AA/	8r	8g/
.	8A/L 8c#/L 8g/L	8f#/
8r	8A/J 8c#/J 8g/J	8e/
=5	=5	=5
4DD/ 4D/	8r	4d/
.	8A/L 8d/L 8f#/L	.
8r	8A/J 8d/J 8f#/J	8r
4AAA/ 4AA/	8r	8ff#\
.	8A/L 8d/L 8f#/L	8ee'\
8r	8A/J 8d/J 8f#/J	8dd'\
=6	=6	=6
4EE/ 4E/	8r	8cc#\L
.	8A/L 8c#/L 8g/L	8b\J
8r	8A/J 8c#/J 8g/J	8a/
4AAA/ 4AA/	8r	8g/
.	8A/L 8c#/L 8g/L	8f#/
8r	8A/J 8c#/J 8g/J	8e/
=7	=7	=7
4.FF#/	8r	4.d/
.	8A/L 8d/L	.
.	8A/J 8d/J	.
4.AA/	8r	8d#/
.	8F#/L 8c/L 8d#/L	8c#/
.	8F#/J 8c/J 8d#/J	8d#/
=8	=8	=8
!!linebreak:original
4.GG/	8r	4f#/
.	8G/L 8B/L 8e/L	.
.	8G/J 8B/J 8e/J	8e/
4.C/	8r	8f#/
.	8A/L 8d/L 8f#/L	8e/
.	8A/J 8d/J 8f#/J	8f#/
=9	=9	=9
4.BB/	8r	4g/
.	8B/L 8d/L 8g/L	.
.	8B/J 8d/J 8g/J	8r
4.D\	8r	8g#/
.	8f-/L	8f#/
.	8B/J 8e/J 8g/J	8g#/
=10	=10	=10
4.C/	8r	4b/
.	8c/L 8e/L 8a/L	.
.	8c/J 8e/J 8a/J	8a/
4.Fn\	8r	8b/
.	8d/L 8g/L 8b/L	8a/
.	8d/J 8g/J 8b/J	8b/
=11	=11	=11
4.E\	8r	4cc\
.	8c/L 8g/L 8cc/L	.
.	8c/J 8g/J 8cc/J	8r
4.A\	8r	8cc#\
.	8e/L 8g/L 8cc#/L	8b/
.	8e/J 8g/J 8cc#/J	8cc#\
=12	=12	=12
!!linebreak:original
*	*	*^
4.D\	8r	2.ryy	4ee^\
.	8d/L 8g/L 8b/L 8dd/L	.	.
.	8d/J 8g/J 8b/J	.	8dd\
4.DD/	8r	.	8cc#\
.	8d/L 8f#/L 8cc/L	.	8r
.	8d~/J 8f#~/J 8cc~/J	.	8r
*	*	*v	*v
=13	=13	=13
4GG/	8r	4g/
.	8d/L 8g/L 8b/L	.
8r	8d/J 8g/J 8b/J	8r
*	*^	*
4D\ 4d\	(4gg/	8r	4.r
.	.	8g\L 8b\L	.
8r	8ff#/)	8g\J 8b\J	.
=14	=14	=14	=14
4D\ 4d\	(4ee/	8r	2.r
.	.	8f#\L 8a\L	.
8r	8dd/)	8f#\J 8a\J	.
4D\ 4d\	(4cc#/	8r	.
.	.	8e\L 8g\L	.
8r	8cc#/)	8f#\J 8a\J	.
=15	=15	=15	=15
4.G\	4.b/	8r	4r
.	.	8d\L 8g\L	.
.	.	8d\J 8g\J	8r
*	*v	*v	*
4.GG/	8r	8b/
.	8d/L 8g/L 8b/L	8cc\
.	8d/J 8g/J 8b/J	8cc#\
=16	=16	=16
!!linebreak:original
*	*	*^
4AA\ 4A\	8r	2.ryy	4ee^\
.	8d/L 8f#/L 8cc/L	.	.
8r	8d/J 8f#/J 8cc/J	.	8dd\
4DD/ 4D/	8r	.	8cc#\
.	8d/L 8f#/L 8cc/L	.	8r
8r	8d/J 8f#/J 8cc/J	.	8r
*	*	*v	*v
=17	=17	=17
4GG/ 4G/	8r	4g/
.	8d/L 8g/L 8b/L	.
8.r	8d/J 8g/J 8b/J	8r
.	8r	4a/
8.GGG/ 8.GG/	.	.
.	8B/L 8e/L 8g/L	.
8r	8B/J 8e/J 8g/J	8g/
=18	=18	=18
8AAA/ 8AA/	8r	8b/
*	*	*^
8r	8A/L 8d/L 8f#/L	8a/ 8a/	8f#/
*	*	*v	*v
4AA/	8A/J 8d/J 8f#/J	8g/
.	8r	8gn/
8r	8A/L 8c#/L 8g/L	8e/
8r	8A/J 8c#/J 8g/J	8a/
=19	=19	=19
4DD/ 4D/	8r	4d/
.	8A/L 8d/L 8f#/L	.
8.r	8A/J 8d/J 8f#/J	8r
.	8r	8ff#\
8.AAA/ 8.AA/	.	.
.	8A/L 8d/L 8f#/L	8ee\
8r	8A/J 8d/J 8f#/J	8dd\
=20	=20	=20
!!linebreak:original
4EE/ 4E/	8r	8cc\L
.	8A/L 8c#/L 8g/L	8b\J
8.r	8A/J 8c#/J 8g/J	8a/
.	8r	8g/
8.AAA/ 8.AA/	.	.
.	8A/L 8c#/L 8g/L	8e/
8r	8A/J 8c#/J 8g/J	16r
.	.	16a/
=21	=21	=21
4.FF#/	8r	4d/
.	8A/L 8d/L	.
.	8A/J 8d/J	8r
4.AA/	8r	8d#/
.	8F#/L 8c/L 8d#/L	8c#/
.	8F#/J 8c/J 8d#/J	8d#/
=22	=22	=22
4.GG/	8r	8f#/
.	8G/L 8B/L 8e/L	8e/
.	8G/J 8B/J 8e/J	8e/
4.C/	8r	8f#/
.	8A/L 8d/L 8f#/L	8e/
.	8A/J 8d/J 8f#/J	8f#/
=23	=23	=23
(4.BB/	8r	4g/
.	8B/L 8d/L 8g/L	.
.	8B/J 8d/J 8g/J	8r
4.D\)	8r	8g#/
.	4f#/	8f#/
.	.	8g#/
=24	=24	=24
!!linebreak:original
4.C/	8r	4b/
.	8c/L 8e/L 8a/L	.
.	8c/J 8e/J 8a/J	8.a/
4.Fn\	8r	.
.	.	8.a/
.	8d/L 8g/L 8b/L	.
.	8d/J 8g/J 8b/J	8b/
=25	=25	=25
4.E\	8r	4cc\
.	8c/L 8g/L 8cc/L	.
.	8c/J 8g/J 8cc/J	8r
4.A\	8r	8cc#\
.	8e/L 8g/L 8cc#/L	8b\
.	8e/J 8g/J 8cc#/J	8cc#\
=26	=26	=26
4.D\	8r	8ee^\L
.	8d/L 8g/L 8b/L 8dd/L	8dd\J
.	8d/J 8g/J 8b/J	8cc#\
4.DD/	8r	8cc#\
.	8d/L 8f#/L 8a/L	8a/
.	8d/J 8f#/J 8a/J	8dd\
=27	=27	=27
4GG/	8r	4g/
.	8d/L 8g/L 8b/L	.
8r	8d/J 8g/J 8b/J	8r
*	*^	*
(4D\ 4d\	(4gg/	8r	4.r
.	.	8g\L 8b\L	.
8r)	8ff#/)	8g\J 8b\J	.
*	*v	*v	*
=28	=28	=28
!!linebreak:original
*	*^	*
4D\ 4d\	(4ee/	8r	2.r
.	.	8f#\L 8a\L	.
8r	8dd/)	8f#\J 8a\J	.
4D\ 4d\	(4cc#/	8r	.
.	.	8e\L 8g\L	.
*	*v	*v	*
8r	8cc#/)	.
=29	=29	=29
*	*^	*
4.G\	4.b/	8r	4r
.	.	8d\L 8g\L	.
.	.	8d\J 8g\J	8r
*	*v	*v	*
4.GG/	8r	8b/
.	8d/L 8g/L 8b/L	8cc\
.	8d/J 8g/J 8b/J	8dd\
=30	=30	=30
4.C#/	8r	4ee\
.	8e/L 8g/L 8b-/L	.
.	8e/J 8g/J 8a/J	8a/
4.Cn/	8r	8a/
.	8e-/L 8f#/L 8a/L	8g#/
.	8d/J 8f#/J 8a/J	8a/
=31	=31	=31
4.BB/	8r	4dd^\
.	8G/L 8d/L 8g/L	.
.	8G/J 8d/J 8g/J	8r
4.BB-/	8r	8dd\
.	8G/L 8d/L 8g/L	8cc#\
.	8G/J 8d/J 8g/J	8dd\
=32	=32	=32
!!linebreak:original
4.AA/	8r	8dd\L
.	8A/L 8d/L 8f#/L	8a\J
.	8A/J 8d/J 8f#/J	8f#/
4.AAA/	8r	8g/
.	8A/L 8c#/L 8g/L	8e/
.	8A/J 8c#/J 8g/J	8a/
=33	=33	=33
4DD/ 4D/	8r	4d/
.	8A/L 8d/L 8f#/L	.
8r	8A/J 8d/J 8f#/J	8r
4AAA/ 4AA/	8r	8ff#\
.	8A/L 8d/L 8f#/L	8ee\
8r	8A/J 8d/J 8f#/J	8dd\
=34	=34	=34
4EE/ 4E/	8r	8cc#\
.	8A/L 8c#/L 8g/L	8b/
8r	8A/J 8c#/J 8g/J	8a/
4AAA/ 4AA/	8r	8g/
.	8A/L 8c#/L 8g/L	8f#/
8r	8A/J 8c#/J 8g/J	8e/
=35	=35	=35
(4.FF#/	8r	4.d#/
.	8A/L 8c/L 8d#/L	.
.	8A/J 8c/J 8d#/J	.
4.GG/)	8r	8e/
.	8B/L 8e/L	8d#/
.	8B/J 8e/J	8e/
=36	=36	=36
!!linebreak:original
(4.AA/	8r	4g/
.	8c/L 8e-/L 8f#/L	.
.	8c/J 8e-/J 8f#/J	8f#/
4.BB-/	8r	8g/
.	8d/L 8g/L	8f#/
.	8d/ 8g/	8g/
=37	=37	=37
4.BBn/	8r	4g#/
.	8d/J 8f#/J 8g/J	.
.	8r	8r
4.C/)	8.e/L 8.a/L	8a/
.	.	8g#/
.	8.e/J 8.a/J	.
.	.	8a/
=38	=38	=38
4.D\	8r	4cc\
.	8f#/L 8a-/L 8b/L	.
.	8f#/J 8a-/J 8b/J	8b/
4.E-\	8r	8cc\
.	8g/L 8cc/L	8b/
.	8g/J 8cc/J	8cc\
=39	=39	=39
4.A\	8r	4cc#\
.	8en/L 8g/L 8cc#/L	.
.	8e/J 8g/J 8cc#/J	8r
4.AA/	8r	8cc#\
.	8e/L 8g/L 8cc#/L	8b#/
.	8e/J 8g/J 8cc#/J	8cc#\
=40	=40	=40
!!linebreak:original
(4.A\	8r	8gg\
.	8e/L 8g/L 8cc#/L	8cc#\
.	8e/J 8g/J 8cc#/J	8cc#\
4.AA/	8r	8cc#\
.	8e/L 8g/L 8cc#/L	8b/
.	8e/J 8g/J 8cc#/J	8cc#\
=41	=41	=41
4.D\)	8r	4dd\
.	8d/L 8f#/L 8ccn/L	.
.	8d/J 8f#/J 8cc/J	8r
4.D\	8r	8dd\
.	8d/L 8f#/L 8cc/L	8cc#\
.	8d/J 8f#/J 8cc/J	8dd\
=42	=42	=42
4.D\	8r	8ee-\L
.	8d/L 8g/L 8b-/L	8dd\J
.	8d/J 8g/J 8b-/J	8ccn\
4.C#/	8r	8b-/
.	8B-/L 8e/L 8g/L	8a/
.	8B-/J 8e/J 8g/J	8g/
=43	=43	=43
4.C/	8r	4f#/
.	8A/L 8d/L 8f#/L	.
.	8A/J 8d/J 8f#/J	8r
4.BB/	8r	8dd\
.	8G/L 8d/L 8g/L	8cc#\
.	8G/J 8d/J 8g/J	8dd\
=44	=44	=44
4.D^\	8r	4.ffn^\
.	8B/L 8d/L 8g#/L	.
.	8B/J 8d/J 8g#/J	.
4.C/	8r	8ee\
.	8A/L 8e/L 8a/L	8r
.	8A/J 8e/J 8a/J	8ee\
=45	=45	=45
!!linebreak:original
*k[f#c#]	*k[f#c#]	*k[f#c#]
4.C#^/	8r	[4.gg^\
.	8B/L 8e/L 8b/L	.
.	8B/J 8e/J 8b/J	.
4.C#/	8r	8gg\]
.	8B/L 8e/L 8b/L	8ff#\
.	8B/J 8e/J 8b/J	8ee\
=46	=46	=46
4.D\	8r	[4dd^\
.	8B/L 8d/L 8b/L	.
.	8B/J 8d/J 8b/J	8.dd\L]
4.DD/	8r	.
.	.	8.cc#\J
.	8c#/L 8d/L 8f#/L	.
.	8c#/J 8d/J 8f#/J	8a/
=47	=47	=47
4.GG/	8r	4g/
.	8B/L 8d/L 8g/L	.
.	8B/J 8d/J 8g/J	8r
*	*^	*
4D\	(4ee/	8r	4.r
.	.	8f#\L 8a\L	.
8r	8dd/)	8f#\J 8a\J	.
=48	=48	=48	=48
4D\	(4cc#/	8r	2.r
.	.	8e\L 8g\L	.
8r	8ccn/)	8f#\J 8a\J	.
4D\	(4b/	8r	.
.	.	8d\L 8g\L	.
8r	8ryy	8r	.
*	*v	*v	*
=49	=49	=49
2.GG/ 2.G/	2.B/) 2.d/ 2.g/	2.r
==	==	==
*-	*-	*-
